X: 5814
T: Calgary Capers
R: reel
M: 4/4
K: Edorian
|:E2 DE GAB(A|A)GFA GEED|E2 BE Bc (d2|d)cBd BcAF|
E2 DE GAB(A|A)GFA GEED|E2 BE GE E2|1 DEGA BEED:|2 DEGA BEEA||
|:BE E2 BEdE|cA A2 cAeA|dB B2 AB (B2|B)A A2 GEED|
E2 BE BBEd|cA A2 cAec|dB B2 EB B2|1 ABAG EFGA:|2 ABAG EGBe||
|:ge e2 Bega|fd d2 Bdfg|eB B2 GBec|^dBBe BBfB|
ge e2 Bega|fd d2 Bdfg|ec A/B/c BE E/E/E|1 DEGA Befe:|2 DEGA BE E2||

